X:1882
T:Farewell Manchester
O:england
C:William Felton
M:4/4
A:North-West
R:Slow air
K:G
B2A2 GcB2| AGFG (B2A2)| B2A2 GcB2| Ad d^c d4|\
d2=c2 Bge2| d2c2 Bge2| dGc2 BFGc| B2A2 G4|]


